X:0267
M:6/8
L:1/8
Q:3/8=120
K:D
c|d>ed AFA  |d>ed b2a|a>bc' d'ag|fdd   d2:|
f|Adf  fdB  |Ace  ecA|Adf   fed |f>gf Te2
d|dfa  d'c'b|afd  e2d|fdB   A>Bd|fdd   d2:|

